X:1
T:With Grateful Heart My Thanks I Bring
T:Text: Psalm 138; vers. Psalter, 1912. alt. Tune: William B. Bradbury, 1863
T:88 88 88 with repeat SOLID ROCK www.hymnary.org/text/with_grateful_heart_my_thanks_i_bring
T:With Grateful Heart My Thanks I Bring
T:This hymn is in the public domain. You may freely use this score for personal and congregational worship. If you reproduce the score, please credit Hymnary.org as the source. 
T:This hymn is in the public domain. You may freely use this score for personal and congregational worship. If you reproduce the score, please credit Hymnary.org as the source. 
T:This hymn is in the public domain. You may freely use this score for personal and congregational worship. If you reproduce the score, please credit Hymnary.org as the source. 
Z:This hymn is in the public domain. You may freely use this score for personal and congregational worship. If you reproduce the score, please credit Hymnary.org as the source.
%%score ( 1 2 ) ( 3 4 )
L:1/8
M:3/4
K:F
V:1 treble nm="SOPRANO ALTO" snm="S. A."
V:2 treble 
V:3 bass nm="TENOR BASS" snm="T. B."
V:4 bass 
V:1
"^Capo 3:""^1""^2""^3""^4""^F(D)" C2 | FA c2 A2 |"^C(A)" AG G2"^F(D)" A2 |"^Bb(G)" BB B2 G2 | %4
w: With|grate- ful heart my|thanks I bring, be-|fore the great your|
w: I|cried to you, and|you did save; your|word of grace new|
w: O|LORD, en- throned in|glo- ry bright, you|reign a- lone in|
w: You|will stretch forth your|might- y arm to|save me when my|
"^C(A)" FE"^F(D)" F2 C2 | FA c2 A2 |"^C(A)" AG G2"^F(D)" A2 |1"^Bb(G)" BB B2 G2 | %8
w: praise I sing. I|wor- ship in your|ho- ly place and|praise you for your|
w: cour- age gave. The|kings of earth shall|thank you, LORD, for|they have heard your|
w: heav- enly height; the|proud in vain your|fa- vor seek, but|you have mer- cy|
w: foes a- larm. The|work you have for|me be- gun shall|by your grace be|
"^C(A)" FE"^F(D)" F4 |[M:4/4] c2 cc c2 c2 ||[M:3/4]"^Page 2""^Bb(G)" dd d2 d2 | %11
w: truth and grace;|for truth and grace to-|geth- er shine in|
w: won- drous word;|yes, they shall come with|songs of praise, for|
w: for the meek.|Through trou- ble though my|path- way be; you|
w: ful- ly done.|Your love for- ev- er|will en- dure: your|
"^F(D)" c"^With Grateful Heart My Thanks I Bring"A A2 F2 | AA"^C(A)" G2 C2 | %13
w: your most ho- ly|Word di- vine, in|
w: great and glo- rious|are your ways, for|
w: will re- vive and|strength- en me, you|
w: mer- cy, LORD, is|ev- er sure; your|
"^F(D)" FF"^Bb(G)" F2"^F(D)" A2 |"^C7(A7)" GG"^F(D)" F4 |] %15
w: your most ho- ly|Word di- vine.|
w: great and glo- rious|are your ways.|
w: will re- vive and|strength- en me.|
w: mer- cy, LORD, is|ev- er sure.|
V:2
 C2 | CC F2 F2 | FE E2 F2 | FF F2 D2 | CC C2 C2 | CC F2 F2 | FE E2 F2 |1 FF F2 D2 | CC C4 | %9
[M:4/4] F2 FF F2 F2 ||[M:3/4] FF F2 F2 | FF F2 F2 | FF E2 C2 | CC D2 C2 | FE C4 |] %15
V:3
 A,2 | A,A, A,2 C2 | CC C2 C2 | DD D2 B,2 | A,G, A,2 A,2 | A,A, A,2 C2 | CC C2 C2 |1 DD D2 B,2 | %8
 A,G, A,4 |[M:4/4] A,2 A,B, C2 A,2 ||[M:3/4] B,B, B,2 B,2 | A,C C2 A,2 | CC C2 B,2 | %13
 A,A, B,2 F,A, | CB, A,4 |] %15
V:4
 F,2 | F,F, F,2 F,2 | C,C, C,2 F,2 | B,,B,, B,,2 B,,2 | C,C, F,2 F,2 | F,F, F,2 F,2 | %6
 C,C, C,2 F,2 |1 B,,B,, B,,2 B,,2 | C,C, F,4 |[M:4/4] F,2 F,G, A,2 F,2 ||[M:3/4] B,B, B,2 B,2 | %11
 F,F, F,2 F,2 | F,A,, C,2 B,2 | A,F, B,,2 F,2 | C,C, F,4 |] %15

